SVG_Azure_All/Azure Monitor.svg

<?xml version="1.0" encoding="UTF-8" standalone="no"?>
<!-- Generated by Microsoft Visio, SVG Export Azure Monitor.svg Page-1 -->

<svg
   xmlns:dc="http://purl.org/dc/elements/1.1/"
   xmlns:cc="http://creativecommons.org/ns#"
   xmlns:rdf="http://www.w3.org/1999/02/22-rdf-syntax-ns#"
   xmlns:svg="http://www.w3.org/2000/svg"
   xmlns="http://www.w3.org/2000/svg"
   xmlns:sodipodi="http://sodipodi.sourceforge.net/DTD/sodipodi-0.dtd"
   xmlns:inkscape="http://www.inkscape.org/namespaces/inkscape"
   width="0.78739846in"
   height="0.78739846in"
   viewBox="0 0 56.692597 56.693"
   xml:space="preserve"
   class="st8"
   version="1.1"
   id="svg78"
   sodipodi:docname="Azure Monitor.svg"
   style="font-size:12px;overflow:visible;color-interpolation-filters:sRGB;fill:none;fill-rule:evenodd;stroke-linecap:square;stroke-miterlimit:3"
   inkscape:version="0.92.5 (2060ec1f9f, 2020-04-08)"><metadata
   id="metadata82"><rdf:RDF><cc:Work
       rdf:about=""><dc:format>image/svg+xml</dc:format><dc:type
         rdf:resource="http://purl.org/dc/dcmitype/StillImage" /></cc:Work></rdf:RDF></metadata><sodipodi:namedview
   pagecolor="#ffffff"
   bordercolor="#666666"
   borderopacity="1"
   objecttolerance="10"
   gridtolerance="10"
   guidetolerance="10"
   inkscape:pageopacity="0"
   inkscape:pageshadow="2"
   inkscape:window-width="640"
   inkscape:window-height="480"
   id="namedview80"
   showgrid="false"
   inkscape:zoom="1.4193119"
   inkscape:cx="37.795128"
   inkscape:cy="37.784457"
   inkscape:window-x="0"
   inkscape:window-y="0"
   inkscape:window-maximized="0"
   inkscape:current-layer="svg78" />
	<style
   type="text/css"
   id="style2">
	<![CDATA[
		.st1 {fill:url(#grad0-6);stroke:none;stroke-linecap:butt;stroke-width:34}
		.st2 {fill:#ffffff;stroke:none;stroke-linecap:butt;stroke-width:34}
		.st3 {fill:#9cebff;stroke:none;stroke-linecap:butt;stroke-width:34}
		.st4 {fill:#32bedd;stroke:none;stroke-linecap:butt;stroke-width:34}
		.st5 {fill:#50e6ff;stroke:none;stroke-linecap:butt;stroke-width:34}
		.st6 {fill:#f04049;stroke:none;stroke-linecap:butt;stroke-width:34}
		.st7 {fill:url(#grad7-20);stroke:none;stroke-linecap:butt;stroke-width:34}
		.st8 {fill:none;fill-rule:evenodd;font-size:12px;overflow:visible;stroke-linecap:square;stroke-miterlimit:3}
	]]>
	</style>

	<defs
   id="Patterns_And_Gradients">
		<linearGradient
   id="grad0-6"
   x1="0"
   y1="68.015697"
   x2="56.693001"
   y2="68.015697"
   gradientUnits="userSpaceOnUse">
			<stop
   offset="0.18"
   stop-color="#5ea0ef"
   stop-opacity="1"
   id="stop4" />
			<stop
   offset="0.56"
   stop-color="#5c9fee"
   stop-opacity="1"
   id="stop6" />
			<stop
   offset="0.69"
   stop-color="#559ced"
   stop-opacity="1"
   id="stop8" />
			<stop
   offset="0.78"
   stop-color="#4a97e9"
   stop-opacity="1"
   id="stop10" />
			<stop
   offset="0.86"
   stop-color="#3990e4"
   stop-opacity="1"
   id="stop12" />
			<stop
   offset="0.93"
   stop-color="#2387de"
   stop-opacity="1"
   id="stop14" />
			<stop
   offset="0.99"
   stop-color="#087bd6"
   stop-opacity="1"
   id="stop16" />
			<stop
   offset="1"
   stop-color="#0078d4"
   stop-opacity="1"
   id="stop18" />
		</linearGradient>
		<radialGradient
   id="grad7-20"
   cx="0"
   cy="116.47081"
   r="11.225014"
   gradientTransform="scale(0.99823305,1.0017701)"
   fx="0"
   fy="116.47081"
   gradientUnits="userSpaceOnUse">
			<stop
   offset="0.19"
   stop-color="#8c8e90"
   stop-opacity="1"
   id="stop21" />
			<stop
   offset="0.35"
   stop-color="#848688"
   stop-opacity="1"
   id="stop23" />
			<stop
   offset="0.6"
   stop-color="#6e7071"
   stop-opacity="1"
   id="stop25" />
			<stop
   offset="0.91"
   stop-color="#4a4b4c"
   stop-opacity="1"
   id="stop27" />
			<stop
   offset="1"
   stop-color="#3e3f3f"
   stop-opacity="1"
   id="stop29" />
		</radialGradient>
	</defs>
	<g
   id="g76"
   transform="translate(-34.000441,-33.999997)">
		<title
   id="title33">Page-1</title>
		<g
   id="group7807-1"
   transform="translate(34,-34.0157)">
			<title
   id="title35">Azure Monitor</title>
			<g
   id="group7808-2">
				<title
   id="title37">g16</title>
				<g
   id="shape7809-3">
					<title
   id="title39">ellipse2</title>
					<circle
   cx="28.3465"
   cy="96.362198"
   class="st1"
   id="ellipse41"
   r="28.3465"
   style="fill:url(#grad0-6);stroke:none;stroke-width:34;stroke-linecap:butt" />
				</g>
				<g
   id="shape7810-7"
   transform="translate(3.66836,-3.68136)">
					<title
   id="title44">ellipse4</title>
					<ellipse
   cx="24.678101"
   cy="100.044"
   rx="24.678101"
   ry="24.6651"
   class="st2"
   id="ellipse46"
   style="fill:#ffffff;stroke:none;stroke-width:34;stroke-linecap:butt" />
				</g>
				<g
   id="shape7811-9"
   transform="translate(7.40343,-13.4872)">
					<title
   id="title49">path6</title>
					<path
   d="m 0,111.32 a 20.8096,20.8833 -180 0 0 6.07,13.39 l 6.67,-6.69 a 11.7721,11.8138 0 0 1 -3.34,-6.7 z"
   class="st3"
   id="path51"
   inkscape:connector-curvature="0"
   style="fill:#9cebff;stroke:none;stroke-width:34;stroke-linecap:butt" />
				</g>
				<g
   id="shape7812-11"
   transform="translate(14.5734,-29.819)">
					<title
   id="title54">path8</title>
					<path
   d="m 27.55,110.35 a 20.843,20.9168 -180 0 0 -12.31,-5.12 v 9.34 a 11.3719,11.4122 0 0 1 5.7,2.34 z m -27.55,0 6.67,6.69 a 11.3719,11.4122 0 0 1 5.7,-2.34 v -9.47 A 20.843,20.9168 -180 0 0 0,110.35 Z m 23.04,8.64 a 12.0056,12.0481 0 0 1 2.37,5.72 h 9.31 a 20.5428,20.6156 -180 0 0 -5.11,-12.28 z"
   class="st4"
   id="path56"
   inkscape:connector-curvature="0"
   style="fill:#32bedd;stroke:none;stroke-width:34;stroke-linecap:butt" />
				</g>
				<g
   id="shape7813-13"
   transform="translate(7.40343,-29.819)">
					<title
   id="title59">path10</title>
					<path
   d="M 11.67,118.99 5,112.29 a 20.5428,20.6156 -180 0 0 -5,12.42 h 9.3 a 12.0056,12.0481 0 0 1 2.37,-5.72 z"
   class="st5"
   id="path61"
   inkscape:connector-curvature="0"
   style="fill:#50e6ff;stroke:none;stroke-width:34;stroke-linecap:butt" />
				</g>
				<g
   id="shape7814-15"
   transform="translate(29.8472,-27.6102)">
					<title
   id="title64">path12</title>
					<path
   d="m 15.64,117.28 a 1.50069,1.50601 -180 0 0 -1.9,-0.84 L 0,122 l 1.07,2.71 13.74,-5.46 a 1.46735,1.47254 -180 0 0 0.83,-1.97 z"
   class="st6"
   id="path66"
   inkscape:connector-curvature="0"
   style="fill:#f04049;stroke:none;stroke-width:34;stroke-linecap:butt" />
				</g>
				<g
   id="shape7815-17"
   transform="translate(24.3446,-24.3304)">
					<title
   id="title69">ellipse14</title>
					<ellipse
   cx="4.0018501"
   cy="120.693"
   rx="4.0018501"
   ry="4.0160298"
   class="st7"
   id="ellipse71"
   style="fill:url(#grad7-20);stroke:none;stroke-width:34;stroke-linecap:butt" />
				</g>
			</g>
		</g>
	</g>
</svg>

<?xml version="1.0" encoding="UTF-8" standalone="no"?>
<!DOCTYPE svg PUBLIC "-//W3C//DTD SVG 1.1//EN" "http://www.w3.org/Graphics/SVG/1.1/DTD/svg11.dtd">
<!-- Generated by Microsoft Visio, SVG Export Azure Monitor.svg Page-1 -->
<svg xmlns="http://www.w3.org/2000/svg" xmlns:xlink="http://www.w3.org/1999/xlink" xmlns:ev="http://www.w3.org/2001/xml-events"
		width="1.73185in" height="1.73206in" viewBox="0 0 124.693 124.709" xml:space="preserve" color-interpolation-filters="sRGB"
		class="st8">
	<style type="text/css">
	<![CDATA[
		.st1 {fill:url(#grad0-6);stroke:none;stroke-linecap:butt;stroke-width:34}
		.st2 {fill:#ffffff;stroke:none;stroke-linecap:butt;stroke-width:34}
		.st3 {fill:#9cebff;stroke:none;stroke-linecap:butt;stroke-width:34}
		.st4 {fill:#32bedd;stroke:none;stroke-linecap:butt;stroke-width:34}
		.st5 {fill:#50e6ff;stroke:none;stroke-linecap:butt;stroke-width:34}
		.st6 {fill:#f04049;stroke:none;stroke-linecap:butt;stroke-width:34}
		.st7 {fill:url(#grad7-20);stroke:none;stroke-linecap:butt;stroke-width:34}
		.st8 {fill:none;fill-rule:evenodd;font-size:12px;overflow:visible;stroke-linecap:square;stroke-miterlimit:3}
	]]>
	</style>

	<defs id="Patterns_And_Gradients">
		<linearGradient id="grad0-6" x1="0" y1="0" x2="1" y2="0" gradientTransform="rotate(0 0.5 0.5)">
			<stop offset="0.18" stop-color="#5ea0ef" stop-opacity="1"/>
			<stop offset="0.56" stop-color="#5c9fee" stop-opacity="1"/>
			<stop offset="0.69" stop-color="#559ced" stop-opacity="1"/>
			<stop offset="0.78" stop-color="#4a97e9" stop-opacity="1"/>
			<stop offset="0.86" stop-color="#3990e4" stop-opacity="1"/>
			<stop offset="0.93" stop-color="#2387de" stop-opacity="1"/>
			<stop offset="0.99" stop-color="#087bd6" stop-opacity="1"/>
			<stop offset="1" stop-color="#0078d4" stop-opacity="1"/>
		</linearGradient>
		<radialGradient id="grad7-20" cx="0" cy="0" r="1.4">
			<stop offset="0.19" stop-color="#8c8e90" stop-opacity="1"/>
			<stop offset="0.35" stop-color="#848688" stop-opacity="1"/>
			<stop offset="0.6" stop-color="#6e7071" stop-opacity="1"/>
			<stop offset="0.91" stop-color="#4a4b4c" stop-opacity="1"/>
			<stop offset="1" stop-color="#3e3f3f" stop-opacity="1"/>
		</radialGradient>
	</defs>
	<g>
		<title>Page-1</title>
		<g id="group7612-1" transform="translate(34,-34.0157)">
			<title>Azure Monitor</title>
			<g id="group7613-2">
				<title>g16</title>
				<g id="shape7614-3">
					<title>ellipse2</title>
					<ellipse cx="28.3465" cy="96.3622" rx="28.3465" ry="28.3465" class="st1"/>
				</g>
				<g id="shape7615-7" transform="translate(3.66836,-3.68136)">
					<title>ellipse4</title>
					<ellipse cx="24.6781" cy="100.044" rx="24.6781" ry="24.6651" class="st2"/>
				</g>
				<g id="shape7616-9" transform="translate(7.40343,-13.4872)">
					<title>path6</title>
					<path d="M0 111.32 A20.8096 20.8833 -180 0 0 6.07 124.71 L12.74 118.02 A11.7721 11.8138 0 0 1 9.4 111.32 L0 111.32
								 Z" class="st3"/>
				</g>
				<g id="shape7617-11" transform="translate(14.5734,-29.819)">
					<title>path8</title>
					<path d="M27.55 110.35 A20.843 20.9168 -180 0 0 15.24 105.23 L15.24 114.57 A11.3719 11.4122 0 0 1 20.94 116.91
								 L27.55 110.35 ZM0 110.35 L6.67 117.04 A11.3719 11.4122 0 0 1 12.37 114.7 L12.37 105.23 A20.843 20.9168
								 -180 0 0 0 110.35 ZM23.04 118.99 A12.0056 12.0481 0 0 1 25.41 124.71 L34.72 124.71 A20.5428 20.6156
								 -180 0 0 29.61 112.43 L23.04 118.99 Z" class="st4"/>
				</g>
				<g id="shape7618-13" transform="translate(7.40343,-29.819)">
					<title>path10</title>
					<path d="M11.67 118.99 L5 112.29 A20.5428 20.6156 -180 0 0 0 124.71 L9.3 124.71 A12.0056 12.0481 0 0 1 11.67
								 118.99 Z" class="st5"/>
				</g>
				<g id="shape7619-15" transform="translate(29.8472,-27.6102)">
					<title>path12</title>
					<path d="M15.64 117.28 A1.50069 1.50601 -180 0 0 13.74 116.44 L0 122 L1.07 124.71 L14.81 119.25 A1.46735 1.47254
								 -180 0 0 15.64 117.28 Z" class="st6"/>
				</g>
				<g id="shape7620-17" transform="translate(24.3446,-24.3304)">
					<title>ellipse14</title>
					<ellipse cx="4.00185" cy="120.693" rx="4.00185" ry="4.01603" class="st7"/>
				</g>
			</g>
		</g>
	</g>
</svg>
